src/main/resources/icons/dark.svg

<?xml version="1.0" standalone="no"?><!DOCTYPE svg PUBLIC "-//W3C//DTD SVG 1.1//EN" "http://www.w3.org/Graphics/SVG/1.1/DTD/svg11.dtd"><svg t="1735322285398" class="icon" viewBox="0 0 1024 1024" version="1.1" xmlns="http://www.w3.org/2000/svg" p-id="26583" xmlns:xlink="http://www.w3.org/1999/xlink" width="16" height="16"><path d="M529.611373 1023.38565c-146.112965 0-270.826063-51.707812-374.344078-155.225827C51.74928 764.641808 0.041469 639.826318 0.041469 493.815745c0-105.053891 29.693595-202.326012 88.978393-292.22593 59.38719-89.797526 137.000103-155.942569 232.83874-198.63991 6.041111-4.607627 12.184613-3.788493 18.225724 2.252618 7.576986 4.607627 9.931996 11.365479 6.860244 20.580733C322.677735 83.736961 310.493122 142.202626 310.493122 201.589815c0 135.464227 48.328885 251.474031 144.986656 348.131801 96.657771 96.657771 212.667574 144.986656 348.131801 144.986656 74.541162 0 139.252721-11.365479 194.032283-34.19883C1003.684974 655.799424 1009.726084 656.618558 1015.767195 662.659669c7.576986 4.607627 9.931996 11.365479 6.860244 20.580733C983.104241 786.758417 918.802249 869.286132 829.721465 930.925939 740.743072 992.565746 640.706375 1023.38565 529.611373 1023.38565zM296.772633 55.47685c-79.148789 44.130825-142.324472 105.770633-189.424657 184.919422C60.1454 319.545061 36.595308 404.018219 36.595308 493.815745c0 135.464227 48.328885 251.474031 144.986656 348.131801 96.657771 96.657771 212.667574 144.986656 348.131801 144.986656 97.374513 0 185.636163-25.085968 264.784952-75.360296C873.545115 861.299579 932.829913 793.618661 972.455503 708.32637 925.252927 723.582734 868.937488 731.15972 803.509188 731.15972c-146.112965 0-270.826063-51.707812-374.344078-155.225827C325.647095 472.415878 273.939283 347.70278 273.939283 201.589815 273.939283 158.994865 281.516269 110.256413 296.772633 55.47685z" p-id="26584" fill="#000000"></path></svg>

<svg class="icon" viewBox="0 0 1024 1024" xmlns="http://www.w3.org/2000/svg" width="16" height="16">
    <path d="M529.611 1023.386c-146.113 0-270.826-51.708-374.344-155.226C51.75 764.642.041 639.826.041 493.816c0-105.054 29.694-202.326 88.979-292.226 59.387-89.798 137-155.943 232.839-198.64 6.04-4.608 12.184-3.789 18.225 2.253 7.577 4.607 9.932 11.365 6.86 20.58-24.266 57.954-36.45 116.42-36.45 175.807 0 135.464 48.328 251.474 144.986 348.132 96.658 96.657 212.667 144.986 348.132 144.986 74.54 0 139.252-11.365 194.032-34.199 6.041-4.71 12.082-3.89 18.123 2.15 7.577 4.608 9.932 11.366 6.86 20.581-39.523 103.518-103.825 186.046-192.906 247.686-88.978 61.64-189.015 92.46-300.11 92.46zM296.773 55.476c-79.15 44.132-142.325 105.771-189.425 184.92-47.203 79.15-70.753 163.622-70.753 253.42 0 135.464 48.33 251.474 144.987 348.132 96.658 96.657 212.668 144.986 348.132 144.986 97.374 0 185.636-25.086 264.785-75.36 79.046-50.274 138.33-117.955 177.957-203.248-47.203 15.257-103.519 22.834-168.947 22.834-146.113 0-270.826-51.708-374.344-155.226C325.647 472.416 273.94 347.703 273.94 201.59c0-42.595 7.577-91.334 22.834-146.113z"/>
</svg>
